X:41
T:La Tintin
C:Traditioneel
O:Gent, Vlaanderen
B:Gentse Contradansen, Muziekmoza\"iek
Z:Bert Van Vreckem <http://flanders.blackmill.net/music/>
M:2/4
L:1/8
Q:1/4=120
P:ABABAB
%%staves [1 2]
%%MIDI program 1 % Acoustic Grand Piano
%%MIDI chordprog 25 % Acoustic Guitar (nylon)
%%MIDI bassprog 33 % Acoustic Bass
K:Bb
P:A
V:1
"Bb"B(d cB)|"Bb"f2 "Cm"ga|("Eb"bg) "F"fe|"Bb"{f}e2 !pralltriller!d2|"Bb"B(d cB)|"Bb"f2 "Cm"ga|("Eb"be) "F"dc|"Bb"B2 z2:|
V:2 clef=bass
B2 b2|(af) (ec)|(de) (fF)|b2 B2|B2 b2|(af) (ec)|(de) (fF)|B4:|
P:B
V:1
|:(3"Bb"dff (3fff|(3"Eb"egg (3ggg|(3"Cm"gfe (3dcB|"F"A2 F2|(3"Bb"dff (3fff|(3"Eb"egg (3ggg|(3"F"fed (3cBA|"Bb"B2 B,2:|
V:2
|:B2 d2|e2 d2| c2 e2|f2 F2|B2 d2|e2 e2|f2 F2|B4:|

